X:1
T:Goldberg Variations: Variation XXII
T:BWV 988
T:J. S. Bach
%%score { ( 1 4 ) | ( 2 3 ) }
L:1/8
Q:1/4=184
M:2/2
K:G
V:1 treble nm="Harp"
V:4 treble 
V:2 bass 
V:3 bass 
V:1
"^Presto" z8 | z8 | z4 G4- | G2 FE F2 A2 | z4 d4- | d2 cB c2 e2 | A2 d4 c2- | c2 BA B4- | %8
 B2 BA B2 e2 | ^c2 a4 gf | %10
 a/4g/4a/4g/4a/4g/4a/4g/4 a/4g/4a/4g/4a/4g/4a/4g/4 a/4g/4a/4g/4a/4g/4a/4g/4 a/4g/4a/4g/4a/4g/4a/4g/4 | %11
 a/4g/4a/4g/4a/4g/4a/4g/4 a/4g/4a/4g/4a/4g/4a/4g/4 a/4g/4a/4g/4a/4g/4a/4g/4 a/4g/4a/4g/4a/4g/4a/4g/4 | %12
 a/4g/4a/4g/4a/4g/4a/4g/4fe f2 a2 | d4 g4- | g2 f2 e4 | d8 | z8 | z8 | z4 G4- | G2 FE F2 A2 | %20
 z4 d4- | d2 cB c2 e2 | A2 d4 c2- | c2 BA B4- | B2 BA B2 e2 | ^c2 a4 gf | %26
 a/4g/4a/4g/4a/4g/4a/4g/4 a/4g/4a/4g/4a/4g/4a/4g/4 a/4g/4a/4g/4a/4g/4a/4g/4 a/4g/4a/4g/4a/4g/4a/4g/4 | %27
 a/4g/4a/4g/4a/4g/4a/4g/4 a/4g/4a/4g/4a/4g/4a/4g/4 a/4g/4a/4g/4a/4g/4a/4g/4 a/4g/4a/4g/4a/4g/4a/4g/4 | %28
 a/4g/4a/4g/4a/4g/4a/4g/4fe f2 a2 | d4 g4- | g2 f2 e4 | d8 | z4 a4- | a2 gf g2 b2 | e8- | %35
 e2 ^d^c d2 f2 | b2 B2 b4- | b2 ag a2 c'2 | f2 g2 a4- | a2 gf g2 b2 | e8 | d8 | c8 | z4 d4- | %44
 d2 cB c2 e2 | A4- Aede | A2 d4 c2- | c2 BA B4 | z4 a4- | a2 gf g2 b2 | e8- | e2 ^d^c d2 f2 | %52
 b2 B2 b4- | b2 ag a2 c'2 | f2 g2 a4- | a2 gf g2 b2 | e8 | d8 | c8 | z4 d4- | d2 cB c2 e2 | %61
 A4- Aede | A2 d4 c2- | c2 BA !fermata!B4 |] %64
V:2
 z4 E4- | E2 D^C D4- | D2 ^CB, C2 E2 | A,8- | A,2 G,F, G,4- | G,2 E,2 A,4- | A,2 A,G, A,2 F,2 | %7
 D4 z4 | z4 E4- | E2 D^C D4- | D2 ^CB, C2 E2 | A,8 | z4 A,4- | A,2 G,F, G,2 B,2 | %14
 ^C,2 D,2 E,F, G,2- | G,2 F,E, F,4 | z4 E4- | E2 D^C D4- | D2 ^CB, C2 E2 | A,8- | A,2 G,F, G,4- | %21
 G,2 E,2 A,4- | A,2 A,G, A,2 F,2 | D4 z4 | z4 E4- | E2 D^C D4- | D2 ^CB, C2 E2 | A,8 | z4 A,4- | %29
 A,2 G,F, G,2 B,2 | ^C,2 D,2 E,F, G,2- | G,2 F,E, F,4 | D6 C2 | B,2 C2 G2 G,2 | C2 E2 C2 A,2 | %35
 B,2 B,,2 F4- | F2 E^D E2 G2 | C2 E2 A4- | A2 G2 F4 | E4 z4 | z8 | z8 | z4 C4- | C2 B,A, B,2 D2 | %44
 G,6 B,2 | E,4 A,4- | A,2 A,G, A,2 F,2 | D8 | D6 C2 | B,2 C2 G2 G,2 | C2 E2 C2 A,2 | B,2 B,,2 F4- | %52
 F2 E^D E2 G2 | C2 E2 A4- | A2 G2 F4 | E4 z4 | z8 | z8 | z4 C4- | C2 B,A, B,2 D2 | G,6 B,2 | %61
 E,4 A,4- | A,2 A,G, A,2 F,2 | D8 |] %64
V:3
 G,8 | F,8 | E,8 | D,6 C,2 | B,,8 | C,8 | D,8 | G,,8- | G,,2 G,F, G,4- | G,2 F,E, F,2 B,2 | %10
 E,6 D,2- | D,2 ^C,B,, C,2 E,2 | F,,4 F,4 | G,,4 E,4 | A,,8 | D,8 | G,8 | F,8 | E,8 | D,6 C,2 | %20
 B,,8 | C,8 | D,8 | G,,8- | G,,2 G,F, G,4- | G,2 F,E, F,2 B,2 | E,6 D,2- | D,2 ^C,B,, C,2 E,2 | %28
 F,,4 F,4 | G,,4 E,4 | A,,8 | D,8 | x8 | x8 | x8 | z4 B,2 A,2 | G,8 | A,8 | B,8 | E,6 D,2 | %40
 C,4 C4- | C2 B,A, B,2 E2 | A,6 G,2 | x8 | E,6 D,2 | C,4 _D,4 | D,8 | G,,8 | x8 | x8 | x8 | %51
 z4 B,2 A,2 | G,8 | A,8 | B,8 | E,6 D,2 | C,4 C4- | C2 B,A, B,2 E2 | A,6 G,2 | x8 | E,6 D,2 | %61
 C,4 _D,4 | D,8 | !fermata!G,,8 |] %64
V:4
 x8 | x8 | x8 | x8 | D6 =F2 | E6 G2- | G2 FE F2 A2- | A2 GF G2 B2 | E4 B4 | A4 d4 | e8- | e8- | %12
 e2 d^c d2 f2 | B6 ed | e2 d4 ^c2 | d2 AG A4 | x8 | x8 | x8 | x8 | D6 =F2 | E6 G2- | G2 FE F2 A2- | %23
 A2 GF G2 B2 | E4 B4 | A4 d4 | e8- | e8- | e2 d^c d2 f2 | B6 ed | e2 d4 ^c2 | d2 AG A4 | x8 | %33
 z4 B4- | B2 AG A2 c2 | F4 B4 | z4 g4- | g2 fe f2 a2 | ^d2 e4 d2 | e4 B4- | B2 AG A2 c2 | %41
 F2 D2 G4- | G2 FE F2 A2 | D4 z4 | z4 G4- | G2 GF G4- | G2 FE F2 A2- | A2 GF G4 | x8 | z4 B4- | %50
 B2 AG A2 c2 | F4 B4 | z4 g4- | g2 fe f2 a2 | ^d2 e4 d2 | e4 B4- | B2 AG A2 c2 | F2 D2 G4- | %58
 G2 FE F2 A2 | D4 z4 | z4 G4- | G2 GF G4- | G2 FE F2 A2- | A2 GF G4 |] %64

